public/assets/techs/nodejs.svg

<svg width="20" height="20" viewBox="0 0 20 20" fill="none" xmlns="http://www.w3.org/2000/svg">
<path d="M10 1.2793C9.67109 1.2793 9.34279 1.36559 9.05029 1.53809L3.42529 4.84863C2.85404 5.18363 2.5 5.80359 2.5 6.46484V13.7573C2.5 14.4436 2.87406 15.0741 3.47656 15.4028L5.31982 16.4087C5.60357 16.5637 5.91076 16.6382 6.21826 16.6382C6.54826 16.6382 6.8741 16.5495 7.17285 16.3745C7.74785 16.0333 8.09082 15.4307 8.09082 14.7607V6.83105H6.84082V14.7607C6.84082 15.082 6.62814 15.2441 6.53564 15.2979C6.44439 15.3516 6.19922 15.4638 5.91797 15.3101L4.07715 14.3066C3.8759 14.1966 3.75 13.9861 3.75 13.7573V6.46484C3.75 6.24484 3.86762 6.03779 4.05762 5.92529L9.68262 2.61475C9.87762 2.49975 10.1224 2.501 10.3174 2.61475L15.9424 5.92529C16.1311 6.03779 16.25 6.24484 16.25 6.46484V13.7622C16.25 13.9872 16.1253 14.199 15.9253 14.3115L10.3003 17.3755C10.1128 17.4755 9.88721 17.4755 9.69971 17.3755L8.60107 16.7749C8.38857 17.0374 8.125 17.2637 7.8125 17.4512C7.7125 17.5137 7.61221 17.5626 7.51221 17.6001L9.09912 18.4741C9.38662 18.6241 9.6875 18.7012 10 18.7012C10.3125 18.7012 10.6134 18.6241 10.9009 18.4741L16.5259 15.4004C17.1259 15.0754 17.5 14.4497 17.5 13.7622V6.46484C17.5 5.80359 17.1471 5.18363 16.5771 4.84863L10.9521 1.53809C10.659 1.36559 10.3289 1.2793 10 1.2793ZM11.814 6.64795C9.83896 6.64795 8.83789 7.33635 8.83789 8.69385C8.83789 10.2313 10.6087 10.4601 11.46 10.5688C11.5825 10.5851 11.6911 10.599 11.7773 10.6152L12.1509 10.6812C13.4509 10.8987 13.75 11.0461 13.75 11.4648C13.75 11.6673 13.749 12.2803 11.814 12.2803C10.1727 12.2803 9.83643 11.7933 9.83643 11.062H8.58643C8.58643 12.1895 9.14646 13.5303 11.814 13.5303C14.4465 13.5303 15 12.4073 15 11.4648C15 9.89234 13.4721 9.63455 12.3584 9.4458L11.9995 9.38477C11.8958 9.36602 11.7649 9.34855 11.6187 9.33105C10.8237 9.22855 10.0879 9.08129 10.0879 8.69629C10.0879 8.41754 10.0865 7.8992 11.814 7.89795C12.9627 7.89795 13.5474 8.276 13.5474 9.021H14.7974C14.7974 7.87475 14.0115 6.64795 11.814 6.64795Z" fill="#EEEEEE"/>
</svg>

<svg xmlns="http://www.w3.org/2000/svg" width="20" height="20" fill="none" xmlns:v="https://vecta.io/nano"><path d="M10 1.279a1.87 1.87 0 0 0-.95.259L3.425 4.849A1.88 1.88 0 0 0 2.5 6.465v7.292c0 .686.374 1.317.977 1.645l1.843 1.006c.284.155.591.23.898.23a1.88 1.88 0 0 0 .955-.264 1.86 1.86 0 0 0 .918-1.614v-7.93h-1.25v7.93a.61.61 0 0 1-.305.537c-.091.054-.336.166-.618.012l-1.841-1.004c-.201-.11-.327-.32-.327-.549V6.465a.63.63 0 0 1 .308-.54l5.625-3.311a.63.63 0 0 1 .635 0l5.625 3.311c.189.112.308.32.308.54v7.297c0 .225-.125.437-.325.549L10.3 17.376a.64.64 0 0 1-.601 0l-1.099-.601a2.97 2.97 0 0 1-.789.676c-.1.063-.2.111-.3.149l1.587.874c.288.15.588.227.901.227s.613-.077.901-.227l5.625-3.074a1.86 1.86 0 0 0 .974-1.638V6.465a1.88 1.88 0 0 0-.923-1.616l-5.625-3.311A1.88 1.88 0 0 0 10 1.279zm1.814 5.369c-1.975 0-2.976.688-2.976 2.046 0 1.537 1.771 1.766 2.622 1.875l.317.046.374.066c1.3.217 1.599.365 1.599.784 0 .202-.001.816-1.936.816-1.641 0-1.978-.487-1.978-1.218h-1.25c0 1.128.56 2.468 3.228 2.468 2.633 0 3.186-1.123 3.186-2.065 0-1.572-1.528-1.83-2.642-2.019L12 9.385l-.381-.054c-.795-.102-1.531-.25-1.531-.635 0-.279-.001-.797 1.726-.798 1.149 0 1.733.378 1.733 1.123h1.25c0-1.146-.786-2.373-2.983-2.373z" fill="#90c53f"/></svg>
